public/assets/images/logo.svg

<svg width="161" height="64" viewBox="0 0 161 64" fill="none" xmlns="http://www.w3.org/2000/svg">
<path d="M92.7172 37.7917C90.8506 37.7917 89.3012 37.5304 88.0692 37.0077C86.8372 36.4664 85.9039 35.7664 85.2692 34.9077C84.6346 34.0491 84.2986 33.1344 84.2612 32.1637C84.2612 32.0144 84.3172 31.8837 84.4292 31.7717C84.5599 31.6411 84.7092 31.5757 84.8772 31.5757H88.4052C88.6666 31.5757 88.8626 31.6224 88.9932 31.7157C89.1426 31.8091 89.2732 31.9304 89.3852 32.0797C89.5346 32.3597 89.7399 32.6304 90.0012 32.8917C90.2812 33.1531 90.6359 33.3677 91.0652 33.5357C91.5132 33.6851 92.0639 33.7597 92.7172 33.7597C93.7999 33.7597 94.6119 33.5917 95.1532 33.2557C95.7132 32.9197 95.9932 32.4624 95.9932 31.8837C95.9932 31.4731 95.8439 31.1371 95.5452 30.8757C95.2466 30.5957 94.7612 30.3531 94.0892 30.1477C93.4359 29.9237 92.5586 29.6997 91.4572 29.4757C90.0386 29.1771 88.8252 28.7944 87.8172 28.3277C86.8279 27.8424 86.0719 27.2171 85.5492 26.4517C85.0266 25.6677 84.7652 24.6971 84.7652 23.5397C84.7652 22.4011 85.0826 21.3837 85.7172 20.4877C86.3706 19.5917 87.2759 18.8917 88.4332 18.3877C89.5906 17.8837 90.9626 17.6317 92.5492 17.6317C93.8372 17.6317 94.9666 17.7997 95.9372 18.1357C96.9266 18.4717 97.7572 18.9197 98.4292 19.4797C99.1012 20.0397 99.6052 20.6371 99.9412 21.2717C100.296 21.8877 100.483 22.4944 100.501 23.0917C100.501 23.2411 100.445 23.3811 100.333 23.5117C100.221 23.6237 100.081 23.6797 99.9132 23.6797H96.2172C96.0119 23.6797 95.8346 23.6424 95.6852 23.5677C95.5359 23.4931 95.4052 23.3717 95.2932 23.2037C95.1812 22.7931 94.8826 22.4384 94.3972 22.1397C93.9306 21.8224 93.3146 21.6637 92.5492 21.6637C91.7279 21.6637 91.0839 21.8131 90.6172 22.1117C90.1692 22.3917 89.9452 22.8304 89.9452 23.4277C89.9452 23.8011 90.0666 24.1277 90.3092 24.4077C90.5706 24.6877 90.9906 24.9304 91.5692 25.1357C92.1666 25.3411 92.9786 25.5557 94.0052 25.7797C95.7039 26.0971 97.0759 26.4984 98.1212 26.9837C99.1666 27.4504 99.9319 28.0664 100.417 28.8317C100.903 29.5784 101.145 30.5211 101.145 31.6597C101.145 32.9291 100.781 34.0304 100.053 34.9637C99.3439 35.8784 98.3546 36.5784 97.0852 37.0637C95.8159 37.5491 94.3599 37.7917 92.7172 37.7917ZM104.34 37.5117C104.135 37.5117 103.967 37.4464 103.836 37.3157C103.706 37.1851 103.64 37.0171 103.64 36.8117V18.3317C103.64 18.1264 103.706 17.9584 103.836 17.8277C103.967 17.6971 104.135 17.6317 104.34 17.6317H107.924C108.13 17.6317 108.298 17.6971 108.428 17.8277C108.559 17.9584 108.624 18.1264 108.624 18.3317V24.5757C109.128 23.9971 109.744 23.5397 110.472 23.2037C111.219 22.8491 112.078 22.6717 113.048 22.6717C114.131 22.6717 115.092 22.9144 115.932 23.3997C116.791 23.8851 117.463 24.6037 117.948 25.5557C118.434 26.4891 118.676 27.6371 118.676 28.9997V36.8117C118.676 37.0171 118.611 37.1851 118.48 37.3157C118.35 37.4464 118.182 37.5117 117.976 37.5117H114.364C114.178 37.5117 114.01 37.4464 113.86 37.3157C113.73 37.1851 113.664 37.0171 113.664 36.8117V29.1677C113.664 28.2904 113.45 27.6184 113.02 27.1517C112.61 26.6664 111.994 26.4237 111.172 26.4237C110.407 26.4237 109.791 26.6664 109.324 27.1517C108.858 27.6184 108.624 28.2904 108.624 29.1677V36.8117C108.624 37.0171 108.559 37.1851 108.428 37.3157C108.298 37.4464 108.13 37.5117 107.924 37.5117H104.34ZM128.739 37.7917C127.171 37.7917 125.846 37.5397 124.763 37.0357C123.699 36.5317 122.878 35.8131 122.299 34.8797C121.739 33.9277 121.422 32.7984 121.347 31.4917C121.329 31.1184 121.319 30.6984 121.319 30.2317C121.319 29.7464 121.329 29.3264 121.347 28.9717C121.422 27.6464 121.758 26.5171 122.355 25.5837C122.953 24.6504 123.783 23.9317 124.847 23.4277C125.93 22.9237 127.227 22.6717 128.739 22.6717C130.27 22.6717 131.567 22.9237 132.631 23.4277C133.714 23.9317 134.554 24.6504 135.151 25.5837C135.749 26.5171 136.085 27.6464 136.159 28.9717C136.178 29.3264 136.187 29.7464 136.187 30.2317C136.187 30.6984 136.178 31.1184 136.159 31.4917C136.085 32.7984 135.758 33.9277 135.179 34.8797C134.619 35.8131 133.798 36.5317 132.715 37.0357C131.651 37.5397 130.326 37.7917 128.739 37.7917ZM128.739 34.3757C129.579 34.3757 130.186 34.1237 130.559 33.6197C130.951 33.1157 131.175 32.3597 131.231 31.3517C131.25 31.0717 131.259 30.6984 131.259 30.2317C131.259 29.7651 131.25 29.3917 131.231 29.1117C131.175 28.1224 130.951 27.3757 130.559 26.8717C130.186 26.3491 129.579 26.0877 128.739 26.0877C127.918 26.0877 127.311 26.3491 126.919 26.8717C126.527 27.3757 126.313 28.1224 126.275 29.1117C126.257 29.3917 126.247 29.7651 126.247 30.2317C126.247 30.6984 126.257 31.0717 126.275 31.3517C126.313 32.3597 126.527 33.1157 126.919 33.6197C127.311 34.1237 127.918 34.3757 128.739 34.3757ZM139.641 42.8317C139.436 42.8317 139.268 42.7664 139.137 42.6357C139.006 42.5051 138.941 42.3371 138.941 42.1317V23.6517C138.941 23.4464 139.006 23.2784 139.137 23.1477C139.268 23.0171 139.436 22.9517 139.641 22.9517H142.805C142.992 22.9517 143.15 23.0171 143.281 23.1477C143.43 23.2784 143.505 23.4464 143.505 23.6517V24.6877C143.934 24.1091 144.504 23.6331 145.213 23.2597C145.922 22.8677 146.8 22.6717 147.845 22.6717C148.778 22.6717 149.6 22.8211 150.309 23.1197C151.018 23.3997 151.625 23.8197 152.129 24.3797C152.633 24.9397 153.025 25.6211 153.305 26.4237C153.604 27.2264 153.772 28.1504 153.809 29.1957C153.828 29.5691 153.837 29.9144 153.837 30.2317C153.837 30.5491 153.828 30.8944 153.809 31.2677C153.772 32.2757 153.613 33.1811 153.333 33.9837C153.053 34.7864 152.661 35.4677 152.157 36.0277C151.653 36.5877 151.037 37.0264 150.309 37.3437C149.6 37.6424 148.778 37.7917 147.845 37.7917C146.93 37.7917 146.128 37.6331 145.437 37.3157C144.765 36.9797 144.205 36.5131 143.757 35.9157V42.1317C143.757 42.3371 143.692 42.5051 143.561 42.6357C143.43 42.7664 143.262 42.8317 143.057 42.8317H139.641ZM146.333 34.0397C146.968 34.0397 147.462 33.9091 147.817 33.6477C148.172 33.3864 148.424 33.0317 148.573 32.5837C148.741 32.1357 148.844 31.6411 148.881 31.0997C148.918 30.5211 148.918 29.9424 148.881 29.3637C148.844 28.8224 148.741 28.3277 148.573 27.8797C148.424 27.4317 148.172 27.0771 147.817 26.8157C147.462 26.5544 146.968 26.4237 146.333 26.4237C145.717 26.4237 145.222 26.5637 144.849 26.8437C144.476 27.1051 144.205 27.4504 144.037 27.8797C143.869 28.3091 143.776 28.7757 143.757 29.2797C143.738 29.6344 143.729 29.9797 143.729 30.3157C143.729 30.6517 143.738 31.0064 143.757 31.3797C143.776 31.8464 143.878 32.2851 144.065 32.6957C144.252 33.0877 144.532 33.4144 144.905 33.6757C145.278 33.9184 145.754 34.0397 146.333 34.0397Z" fill="#21428A"/>
<g clip-path="url(#clip0_4502_32468)">
<path d="M80.5383 29.1424C80.5383 15.6139 69.8756 4.64732 56.722 4.64732C53.5757 4.64732 50.5779 5.27655 47.8248 6.41816C44.0317 2.454 38.7615 0 32.932 0C21.7449 0 12.603 9.06093 12.0698 20.432C4.99923 23.3804 0 30.5087 0 38.8505C0 49.8082 8.64377 58.6983 19.2977 58.6983C21.7536 58.6983 24.0959 58.2309 26.2547 57.3679C26.2547 57.3679 32.9495 54.6712 39.5044 54.1139C45.7272 53.5835 55.6907 53.6375 56.6696 53.6375C56.6871 53.6375 56.6958 53.6375 56.7133 53.6375C56.722 53.6375 56.722 53.6375 56.7308 53.6375C56.7482 53.6375 56.757 53.6375 56.757 53.6375C69.8931 53.6195 80.5383 42.6619 80.5383 29.1424Z" fill="#FF588A"/>
<path d="M52.3521 39.1468C46.138 39.1468 41.0776 33.9421 41.0776 27.5509C41.0776 21.1597 46.138 15.9551 52.3521 15.9551C58.5662 15.9551 63.6266 21.1597 63.6266 27.5509C63.6266 33.9421 58.5662 39.1468 52.3521 39.1468ZM52.3521 21.3485C49.0309 21.3485 46.3216 24.1351 46.3216 27.5509C46.3216 30.9667 49.0309 33.7533 52.3521 33.7533C55.6733 33.7533 58.3826 30.9667 58.3826 27.5509C58.3826 24.1351 55.6733 21.3485 52.3521 21.3485Z" fill="#F9F9FB"/>
<path d="M67.2536 37.7525C68.5568 37.7525 69.6133 36.6659 69.6133 35.3255C69.6133 33.9851 68.5568 32.8984 67.2536 32.8984C65.9503 32.8984 64.8938 33.9851 64.8938 35.3255C64.8938 36.6659 65.9503 37.7525 67.2536 37.7525Z" fill="#F9F9FB"/>
<path d="M39.2858 18.9502C39.2771 17.467 38.1059 16.2715 36.6638 16.2715C36.6551 16.2715 36.6551 16.2715 36.6463 16.2715C35.1955 16.2805 34.0331 17.494 34.0418 18.9862C34.0418 19.0131 34.0331 21.3053 33.2553 24.4695C32.7309 26.5909 31.7607 29.4584 30.004 32.3169C28.6755 31.4989 26.8664 30.1955 25.4505 28.5235C22.9072 25.5212 22.3216 21.5121 22.3129 21.4761V21.4851H22.2954C22.0856 20.2087 21.0106 19.2379 19.7084 19.2379C18.2576 19.2379 17.0864 20.4424 17.0864 21.9346C17.0864 22.1863 17.1214 22.429 17.1826 22.6627C17.436 24.0829 18.4411 28.4786 21.4913 32.0652C23.1432 34.0158 25.1271 35.526 26.7265 36.5687C21.334 42.5194 17.5496 43.7329 17.4797 43.7689C16.16 44.3802 15.5744 45.9802 16.1687 47.3375C16.6057 48.3353 17.5584 48.9286 18.5635 48.9286C18.9218 48.9286 19.2889 48.8477 19.6385 48.6859C20.0143 48.5151 25.066 46.7982 31.8307 38.807C39.2683 30.0067 39.2858 19.3997 39.2858 18.9502Z" fill="#F9F9FB"/>
<path d="M77.7765 3.90884C76.4043 3.44141 74.9185 4.20548 74.464 5.61675L68.1363 29.0691C68.0926 29.2129 68.0664 29.3567 68.0664 29.5096C68.0664 30.3096 68.6957 30.9568 69.4735 30.9568C70.0591 30.9568 70.566 30.5882 70.7758 30.0579H70.7845L79.4371 7.31568C79.9003 5.91339 79.1574 4.38526 77.7765 3.90884Z" fill="#F9F9FB"/>
</g>
<defs>
<clipPath id="clip0_4502_32468">
<rect width="80.5383" height="58.6983" fill="white"/>
</clipPath>
</defs>
</svg>

<svg xmlns="http://www.w3.org/2000/svg" width="161" height="64" fill="none"><path fill="#21428A" d="M92.717 37.792c-1.866 0-3.416-.262-4.648-.784-1.232-.542-2.165-1.242-2.8-2.1-.634-.859-.97-1.774-1.008-2.744 0-.15.056-.28.168-.392.13-.13.28-.196.448-.196h3.528c.262 0 .458.046.588.14.15.093.28.214.392.364.15.28.355.55.616.812.28.261.635.476 1.064.644.448.15.999.224 1.652.224 1.083 0 1.895-.168 2.436-.504.56-.336.84-.794.84-1.372 0-.41-.15-.747-.448-1.008-.298-.28-.784-.523-1.456-.728-.653-.224-1.53-.448-2.632-.672-1.418-.299-2.632-.682-3.64-1.148-.99-.486-1.745-1.11-2.268-1.876-.522-.784-.784-1.755-.784-2.912 0-1.139.318-2.156.952-3.052.654-.896 1.559-1.596 2.716-2.1 1.158-.504 2.53-.756 4.116-.756 1.288 0 2.418.168 3.388.504.99.336 1.82.784 2.492 1.344.672.56 1.176 1.157 1.512 1.792.355.616.542 1.222.56 1.82 0 .15-.056.29-.168.42a.57.57 0 0 1-.42.168h-3.696c-.205 0-.382-.038-.532-.112a1.032 1.032 0 0 1-.392-.364c-.112-.41-.41-.766-.896-1.064-.466-.318-1.082-.476-1.848-.476-.821 0-1.465.15-1.932.448-.448.28-.672.718-.672 1.316 0 .373.122.7.364.98.262.28.682.522 1.26.728.598.205 1.41.42 2.436.644 1.699.317 3.07.718 4.116 1.204 1.046.466 1.81 1.082 2.296 1.848.486.746.728 1.69.728 2.828 0 1.27-.364 2.37-1.092 3.304-.71.914-1.698 1.614-2.968 2.1-1.27.485-2.725.728-4.368.728Zm11.623-.28a.683.683 0 0 1-.504-.196.685.685 0 0 1-.196-.504v-18.48c0-.206.066-.374.196-.504a.684.684 0 0 1 .504-.196h3.584a.68.68 0 0 1 .504.196c.131.13.196.298.196.504v6.244a5.44 5.44 0 0 1 1.848-1.372c.747-.355 1.606-.532 2.576-.532 1.083 0 2.044.242 2.884.728.859.485 1.531 1.204 2.016 2.156.486.933.728 2.081.728 3.444v7.812a.68.68 0 0 1-.196.504.68.68 0 0 1-.504.196h-3.612a.748.748 0 0 1-.504-.196.685.685 0 0 1-.196-.504v-7.644c0-.878-.214-1.55-.644-2.016-.41-.486-1.026-.728-1.848-.728-.765 0-1.381.242-1.848.728-.466.466-.7 1.138-.7 2.016v7.644a.68.68 0 0 1-.196.504.68.68 0 0 1-.504.196h-3.584Zm24.399.28c-1.568 0-2.893-.252-3.976-.756-1.064-.504-1.885-1.223-2.464-2.156-.56-.952-.877-2.082-.952-3.388a26.303 26.303 0 0 1-.028-1.26c0-.486.01-.906.028-1.26.075-1.326.411-2.455 1.008-3.388.598-.934 1.428-1.652 2.492-2.156 1.083-.504 2.38-.756 3.892-.756 1.531 0 2.828.252 3.892.756 1.083.504 1.923 1.222 2.52 2.156.598.933.934 2.062 1.008 3.388.019.354.028.774.028 1.26 0 .466-.009.886-.028 1.26-.074 1.306-.401 2.436-.98 3.388-.56.933-1.381 1.652-2.464 2.156-1.064.504-2.389.756-3.976.756Zm0-3.416c.84 0 1.447-.252 1.82-.756.392-.504.616-1.26.672-2.268.019-.28.028-.654.028-1.12 0-.467-.009-.84-.028-1.12-.056-.99-.28-1.736-.672-2.24-.373-.523-.98-.784-1.82-.784-.821 0-1.428.261-1.82.784-.392.504-.606 1.25-.644 2.24-.018.28-.028.653-.028 1.12 0 .466.01.84.028 1.12.038 1.008.252 1.764.644 2.268.392.504.999.756 1.82.756Zm10.902 8.456a.683.683 0 0 1-.504-.196.68.68 0 0 1-.196-.504v-18.48c0-.206.065-.374.196-.504a.684.684 0 0 1 .504-.196h3.164c.187 0 .345.065.476.196a.64.64 0 0 1 .224.504v1.036c.429-.579.999-1.055 1.708-1.428.709-.392 1.587-.588 2.632-.588.933 0 1.755.15 2.464.448.709.28 1.316.7 1.82 1.26s.896 1.241 1.176 2.044c.299.802.467 1.726.504 2.772.019.373.028.718.028 1.036 0 .317-.009.662-.028 1.036-.037 1.008-.196 1.913-.476 2.716-.28.802-.672 1.484-1.176 2.044-.504.56-1.12.998-1.848 1.316-.709.298-1.531.448-2.464.448-.915 0-1.717-.159-2.408-.476a4.696 4.696 0 0 1-1.68-1.4v6.216a.68.68 0 0 1-.196.504.683.683 0 0 1-.504.196h-3.416Zm6.692-8.792c.635 0 1.129-.13 1.484-.392s.607-.616.756-1.064c.168-.448.271-.943.308-1.484a13.59 13.59 0 0 0 0-1.736 5.223 5.223 0 0 0-.308-1.484 2.109 2.109 0 0 0-.756-1.064c-.355-.262-.849-.392-1.484-.392-.616 0-1.111.14-1.484.42a2.23 2.23 0 0 0-.812 1.036c-.168.43-.261.896-.28 1.4a19.365 19.365 0 0 0 0 2.1c.019.466.121.905.308 1.316.187.392.467.718.84.98.373.242.849.364 1.428.364Z"/><g clip-path="url(#a)"><path fill="#FF588A" d="M80.538 29.142c0-13.528-10.662-24.495-23.816-24.495-3.146 0-6.144.63-8.897 1.771C44.032 2.454 38.76 0 32.932 0 21.745 0 12.603 9.06 12.07 20.432 5 23.38 0 30.509 0 38.85c0 10.958 8.644 19.848 19.298 19.848 2.456 0 4.798-.467 6.957-1.33 0 0 6.695-2.697 13.25-3.254 6.222-.53 16.186-.476 17.165-.476h.087c13.136-.018 23.781-10.976 23.781-24.496Z"/><path fill="#F9F9FB" d="M52.352 39.147c-6.214 0-11.274-5.205-11.274-11.596s5.06-11.596 11.274-11.596c6.214 0 11.275 5.205 11.275 11.596s-5.06 11.596-11.275 11.596Zm0-17.798c-3.321 0-6.03 2.786-6.03 6.202s2.709 6.202 6.03 6.202 6.03-2.786 6.03-6.202-2.709-6.202-6.03-6.202ZM67.254 37.752c1.303 0 2.36-1.086 2.36-2.427 0-1.34-1.057-2.427-2.36-2.427-1.304 0-2.36 1.087-2.36 2.427s1.056 2.427 2.36 2.427ZM39.286 18.95c-.009-1.483-1.18-2.678-2.622-2.678h-.018c-1.45.009-2.613 1.222-2.604 2.714 0 .027-.009 2.32-.787 5.483-.524 2.122-1.494 4.99-3.251 7.848-1.329-.818-3.138-2.122-4.553-3.794-2.544-3.002-3.13-7.01-3.138-7.047v.01h-.018c-.21-1.277-1.284-2.248-2.587-2.248-1.45 0-2.622 1.204-2.622 2.697 0 .251.035.494.097.728.253 1.42 1.258 5.816 4.308 9.402 1.652 1.95 3.636 3.461 5.236 4.504-5.393 5.95-9.177 7.164-9.247 7.2-1.32.611-1.906 2.211-1.311 3.569a2.62 2.62 0 0 0 2.395 1.59c.358 0 .725-.08 1.075-.242.375-.17 5.427-1.888 12.192-9.879 7.437-8.8 7.455-19.407 7.455-19.857ZM77.776 3.909c-1.372-.468-2.858.296-3.312 1.708l-6.328 23.452c-.043.144-.07.288-.07.44 0 .8.63 1.448 1.407 1.448.586 0 1.093-.369 1.303-.9h.008l8.653-22.741c.463-1.403-.28-2.93-1.66-3.407Z"/></g><defs><clipPath id="a"><path fill="#fff" d="M0 0h80.538v58.698H0z"/></clipPath></defs></svg>
